source/assets/images/icons/trophy.svg

<?xml version="1.0" encoding="UTF-8" standalone="no"?>
<!DOCTYPE svg PUBLIC "-//W3C//DTD SVG 1.1//EN" "http://www.w3.org/Graphics/SVG/1.1/DTD/svg11.dtd">
<svg width="100%" height="100%" viewBox="0 0 20 20" version="1.1" xmlns="http://www.w3.org/2000/svg" xmlns:xlink="http://www.w3.org/1999/xlink" xml:space="preserve" xmlns:serif="http://www.serif.com/" style="fill-rule:evenodd;clip-rule:evenodd;stroke-linejoin:round;stroke-miterlimit:2;">
    <path d="M15,9C16.646,9 18,7.646 18,6L20,6C20,6 20,6.001 20,6.001C20,8.744 17.743,11.001 15,11.001C14.967,11.001 14.933,11.001 14.9,11C14.5,12.96 12.96,14.5 11,14.9L11,17L16,19L16,20L4,20L4,19L9,17L9,14.9C7.04,14.5 5.5,12.96 5.1,11L5,11C2.257,11 0,8.743 0,6L2,6C2,7.646 3.354,9 5,9L5,4L2,4L2,6L0,6L0,2L5,2L5,0L15,0L15,2L20,2L20,6L18,6L18,4L15,4L15,9Z" style="fill-rule:nonzero;"/>
</svg>

<svg xmlns="http://www.w3.org/2000/svg" viewBox="0 0 20 20"><path d="M15 9a3 3 0 0 0 3-3h2a5 5 0 0 1-5.1 5 5 5 0 0 1-3.9 3.9V17l5 2v1H4v-1l5-2v-2.1A5 5 0 0 1 5.1 11H5a5 5 0 0 1-5-5h2a3 3 0 0 0 3 3V4H2v2H0V2h5V0h10v2h5v4h-2V4h-3v5z"/></svg>
